X: 886
T: Bill Black's hornpipe
C: anon.
O: Ireland
B: Francis O'Neill: "The Dance Music of Ireland" (1907) no. 886
R: Hornpipe
Z: Transcribed by Frank Nordberg - http://www.musicaviva.com
F: http://www.musicaviva.com/abc/tunes/ireland/oneill-1001/oneill-1001-088
6.abc
M: C|
L: 1/8
K: G
d>c|B>GB>d g>dc>B|A>cb>g f>ed>c|B>GB>d g>dB>G|(3ABA (3FGF D2 d>c|
B>GB>d g>dc>B|A>cb>g f>ed>c|(3BdB G>B (3AcA F>A|G2G2G2::B>c|d>cB>A G>Bd>g
|e2c2c2c>d|
e>dc>B A>ca>g|f2d>d d2e>f|(3ggg g>e (3fff f>d|e>fg>e d>cB>A|(3BdB G>B (3A
cA F>A|G2G2G2:|
W:
W:
W: From Musica Viva - http://www.musicaviva.com
W: the Internet center for free sheet music downloads.


